ic24/ic24__uber-direct.svg

<svg width="24" height="24" viewBox="0 0 24 24" fill="none" xmlns="http://www.w3.org/2000/svg">
<g clip-path="url(#clip0_3240_372)">
<path d="M3.61502 7.72V4.255H2.77002V7.76C2.77002 7.92501 2.78502 8.09 2.81002 8.245C2.84002 8.395 2.88002 8.535 2.93002 8.67C2.98502 8.805 3.04502 8.93 3.12502 9.045C3.20002 9.16 3.28502 9.27 3.38002 9.365C3.47502 9.455 3.58502 9.55 3.69502 9.62C3.81002 9.695 3.93502 9.76 4.06002 9.815C4.19002 9.865 4.32002 9.9 4.46002 9.925C4.60502 9.955 4.75002 9.965 4.90002 9.965C5.19002 9.965 5.46002 9.905 5.72002 9.785C5.97502 9.67 6.20002 9.505 6.37502 9.3V9.86H7.22002V4.255H6.38002V7.72C6.38002 8.17 6.24502 8.53 5.97002 8.8C5.70502 9.075 5.37502 9.21 4.99002 9.21C4.60002 9.21 4.27002 9.075 4.00502 8.8C3.74502 8.53 3.61502 8.17 3.61502 7.72Z" fill="black"/>
<path d="M7.84503 9.87H8.64503V9.36C8.83003 9.55 9.04503 9.7 9.29503 9.81C9.55003 9.915 9.82003 9.97 10.105 9.97C10.24 9.97 10.365 9.955 10.49 9.93C10.62 9.91 10.74 9.875 10.855 9.835C10.97 9.79 11.085 9.745 11.195 9.68C11.3 9.615 11.4 9.545 11.495 9.475C11.59 9.395 11.68 9.31 11.75 9.22C11.83 9.125 11.9 9.025 11.955 8.92C12.02 8.815 12.07 8.705 12.115 8.58C12.165 8.465 12.195 8.345 12.22 8.22C12.24 8.09 12.255 7.965 12.255 7.835C12.255 7.7 12.245 7.575 12.22 7.45C12.2 7.32 12.16 7.2 12.115 7.09C12.07 6.975 12.02 6.86 11.955 6.75C11.895 6.645 11.825 6.545 11.75 6.45C11.675 6.355 11.59 6.265 11.495 6.195C11.405 6.115 11.305 6.045 11.195 5.99C11.09 5.925 10.98 5.875 10.855 5.83C10.735 5.785 10.615 5.755 10.49 5.735C10.37 5.705 10.24 5.695 10.105 5.695C9.82003 5.695 9.55503 5.755 9.30503 5.865C9.05503 5.97 8.83503 6.12 8.65503 6.305V4.25H7.84503V9.87ZM8.64003 7.835C8.64003 7.735 8.65003 7.635 8.66503 7.545C8.68503 7.455 8.72003 7.365 8.75003 7.28C8.79003 7.195 8.83003 7.115 8.88003 7.04C8.93503 6.96 8.99003 6.885 9.06003 6.825C9.12503 6.76 9.19503 6.705 9.26503 6.655C9.34003 6.6 9.42003 6.56 9.49503 6.525C9.58003 6.485 9.67003 6.46 9.76003 6.445C9.85503 6.425 9.95503 6.41 10.05 6.41C10.145 6.41 10.24 6.42 10.33 6.445C10.42 6.46 10.51 6.49 10.595 6.525C10.68 6.56 10.76 6.6 10.835 6.655C10.91 6.705 10.975 6.76 11.04 6.825C11.105 6.89 11.16 6.96 11.21 7.04C11.265 7.115 11.31 7.195 11.345 7.28C11.385 7.365 11.41 7.455 11.425 7.545C11.445 7.635 11.46 7.735 11.46 7.835C11.46 7.93 11.45 8.03 11.425 8.125C11.41 8.215 11.38 8.305 11.345 8.39C11.305 8.475 11.265 8.555 11.21 8.63C11.16 8.705 11.105 8.775 11.04 8.835C10.98 8.9 10.915 8.955 10.835 9.015C10.76 9.065 10.68 9.105 10.595 9.145C10.51 9.185 10.42 9.215 10.33 9.23C10.24 9.245 10.145 9.255 10.05 9.255C9.95503 9.255 9.85503 9.245 9.76003 9.23C9.67003 9.21 9.58003 9.175 9.49503 9.145C9.41003 9.115 9.33003 9.065 9.25503 9.015C9.18003 8.96 9.11003 8.905 9.05003 8.835C8.98503 8.77 8.93003 8.7 8.87003 8.63C8.82003 8.555 8.78003 8.475 8.74003 8.39C8.70503 8.305 8.68003 8.215 8.66003 8.125C8.64503 8.03 8.64003 7.93 8.64003 7.835Z" fill="black"/>
<path d="M12.535 7.82496C12.535 7.95996 12.545 8.08996 12.57 8.21496C12.59 8.34496 12.625 8.46496 12.665 8.57996C12.715 8.69496 12.765 8.80996 12.825 8.91996C12.89 9.01996 12.96 9.12496 13.03 9.21996C13.11 9.30996 13.2 9.39996 13.295 9.47496C13.39 9.54996 13.495 9.61496 13.6 9.67996C13.705 9.73996 13.815 9.78996 13.94 9.83496C14.065 9.87996 14.18 9.90996 14.305 9.92996C14.44 9.94996 14.57 9.96496 14.705 9.96496C15.07 9.96496 15.41 9.88996 15.71 9.73496C16.015 9.57996 16.27 9.36996 16.47 9.09496L15.885 8.65996C15.735 8.86496 15.555 9.01496 15.355 9.11996C15.155 9.21496 14.94 9.26496 14.705 9.26496C14.36 9.26496 14.065 9.15496 13.81 8.93496C13.56 8.70996 13.405 8.43496 13.35 8.09996H16.68V7.83496C16.68 7.69996 16.67 7.56996 16.645 7.44496C16.625 7.31496 16.59 7.19496 16.55 7.07996C16.51 6.96496 16.465 6.85496 16.405 6.74996C16.35 6.64496 16.29 6.54496 16.21 6.44996C16.135 6.35996 16.05 6.27496 15.96 6.19996C15.875 6.11996 15.78 6.04996 15.68 5.99496C15.585 5.93496 15.475 5.88496 15.36 5.83996C15.25 5.79496 15.13 5.76496 15.01 5.74496C14.895 5.72496 14.77 5.70996 14.635 5.70996C14.5 5.70996 14.37 5.72496 14.245 5.74996C14.125 5.76996 14.005 5.80496 13.885 5.84496C13.775 5.88996 13.665 5.93996 13.555 6.00496C13.455 6.06496 13.355 6.13496 13.265 6.20996C13.175 6.28996 13.09 6.37996 13.015 6.47496C12.94 6.56496 12.875 6.66496 12.81 6.77496C12.75 6.87496 12.7 6.98496 12.655 7.10496C12.61 7.21496 12.58 7.33496 12.56 7.45496C12.55 7.56996 12.535 7.69496 12.535 7.82496ZM14.625 6.40496C14.925 6.40496 15.19 6.49996 15.42 6.69496C15.65 6.88996 15.8 7.13996 15.87 7.44996H13.375C13.445 7.13996 13.59 6.88996 13.825 6.69496C14.055 6.50496 14.32 6.40496 14.625 6.40496Z" fill="black"/>
<path d="M19.18 6.505V5.75H18.9C18.675 5.75 18.48 5.8 18.315 5.895C18.155 5.99 18.025 6.12 17.925 6.285V5.78H17.125V9.87H17.935V7.545C17.935 7.23 18.02 6.98 18.19 6.79C18.37 6.595 18.585 6.5 18.845 6.5H19.18V6.505Z" fill="black"/>
<path d="M7.76002 15.03C7.76002 15.42 7.68502 15.79 7.53002 16.145C7.38002 16.5 7.17502 16.805 6.91502 17.06C6.65502 17.315 6.35002 17.52 5.99502 17.67C5.64002 17.82 5.26502 17.895 4.87002 17.895H2.83002V12.15H4.87502C5.40002 12.15 5.88002 12.28 6.32502 12.535C6.77002 12.795 7.12002 13.14 7.37502 13.585C7.63502 14.03 7.76002 14.51 7.76002 15.03ZM4.88002 12.505H3.22502V17.545H4.88502C5.22502 17.545 5.54502 17.48 5.85002 17.345C6.15502 17.215 6.42002 17.035 6.64002 16.81C6.86002 16.585 7.04002 16.32 7.17002 16.01C7.30002 15.7 7.36502 15.375 7.36502 15.03C7.36502 14.685 7.30002 14.36 7.17002 14.05C7.04002 13.74 6.86502 13.47 6.64502 13.245C6.42502 13.02 6.16002 12.84 5.85502 12.705C5.55002 12.57 5.22002 12.505 4.88002 12.505Z" fill="black"/>
<path d="M8.82001 12.89C8.76001 12.95 8.69001 12.98 8.61501 12.98C8.53501 12.98 8.47001 12.95 8.41001 12.89C8.35001 12.83 8.32001 12.76 8.32001 12.675C8.32001 12.595 8.35001 12.525 8.41001 12.47C8.47001 12.415 8.54001 12.385 8.62001 12.385C8.70001 12.385 8.77001 12.415 8.83001 12.47C8.89001 12.53 8.92001 12.595 8.92001 12.675C8.91001 12.76 8.88001 12.83 8.82001 12.89ZM8.79001 13.835V17.895H8.41501V13.835H8.79001Z" fill="black"/>
<path d="M11.225 14.16H10.955C10.655 14.16 10.41 14.27 10.23 14.495C10.045 14.72 9.95502 14.995 9.95502 15.325V17.89H9.58002V13.83H9.95502V14.425C10.05 14.235 10.18 14.08 10.35 13.97C10.52 13.86 10.715 13.8 10.94 13.8H11.225V14.16Z" fill="black"/>
<path d="M11.5 16.915C11.315 16.595 11.225 16.245 11.225 15.86C11.225 15.475 11.315 15.125 11.495 14.805C11.675 14.485 11.925 14.23 12.24 14.045C12.555 13.86 12.905 13.765 13.285 13.765C13.64 13.765 13.965 13.855 14.265 14.035C14.56 14.215 14.8 14.46 14.97 14.77C15.14 15.08 15.23 15.415 15.23 15.775V15.965H11.6C11.62 16.27 11.705 16.55 11.865 16.8C12.02 17.05 12.23 17.25 12.485 17.395C12.74 17.54 13.02 17.61 13.315 17.61C13.595 17.61 13.86 17.545 14.105 17.42C14.35 17.29 14.55 17.115 14.71 16.89L15.015 17.095C14.825 17.36 14.58 17.57 14.28 17.725C13.985 17.88 13.66 17.955 13.315 17.955C12.93 17.955 12.58 17.86 12.255 17.675C11.94 17.49 11.685 17.235 11.5 16.915ZM13.285 14.105C12.865 14.105 12.495 14.25 12.18 14.54C11.865 14.83 11.68 15.19 11.62 15.625H14.835C14.8 15.195 14.635 14.835 14.335 14.545C14.035 14.255 13.69 14.105 13.285 14.105Z" fill="black"/>
<path d="M16.055 15.86C16.055 16.35 16.22 16.765 16.555 17.105C16.89 17.445 17.295 17.615 17.765 17.615C18.045 17.615 18.305 17.55 18.55 17.425C18.795 17.295 18.995 17.12 19.16 16.895L19.465 17.1C19.275 17.365 19.03 17.575 18.73 17.73C18.435 17.885 18.11 17.96 17.765 17.96C17.38 17.96 17.03 17.865 16.705 17.68C16.385 17.49 16.13 17.235 15.95 16.915C15.765 16.595 15.675 16.245 15.675 15.86C15.675 15.475 15.765 15.13 15.95 14.81C16.135 14.49 16.385 14.24 16.705 14.05C17.025 13.86 17.38 13.77 17.765 13.77C18.11 13.77 18.435 13.845 18.73 14C19.025 14.155 19.27 14.365 19.465 14.63L19.16 14.835C18.995 14.61 18.795 14.43 18.55 14.3C18.305 14.17 18.045 14.105 17.765 14.105C17.29 14.105 16.885 14.275 16.55 14.615C16.22 14.955 16.055 15.37 16.055 15.86Z" fill="black"/>
<path d="M21.055 17.895C20.82 17.895 20.635 17.835 20.495 17.705C20.355 17.58 20.29 17.41 20.29 17.195V14.175H19.535V13.83H20.29V12.59H20.665V13.83H21.66V14.175H20.665V17.155C20.665 17.28 20.705 17.375 20.78 17.445C20.855 17.515 20.965 17.55 21.105 17.55H21.66V17.895H21.055Z" fill="black"/>
</g>
<defs>
<clipPath id="clip0_3240_372">
<rect width="24" height="24" fill="white"/>
</clipPath>
</defs>
</svg>

<svg xmlns="http://www.w3.org/2000/svg" width="24" height="24" fill="none" viewBox="0 0 24 24">
  <g clip-path="url(#a)">
    <path fill="#000" d="M3.615 7.72V4.255H2.77V7.76c0 .165.015.33.04.485.03.15.07.29.12.425.055.135.115.26.195.375.075.115.16.225.255.32a2.196 2.196 0 0 0 .68.45c.13.05.26.085.4.11.145.03.29.04.44.04.29 0 .56-.06.82-.18.255-.115.48-.28.655-.485v.56h.845V4.255h-.84V7.72c0 .45-.135.81-.41 1.08a1.31 1.31 0 0 1-.98.41c-.39 0-.72-.135-.985-.41-.26-.27-.39-.63-.39-1.08Zm4.23 2.15h.8v-.51c.185.19.4.34.65.45.255.105.525.16.81.16.135 0 .26-.015.385-.04.13-.02.25-.055.365-.095.115-.045.23-.09.34-.155.105-.065.205-.135.3-.205.095-.08.185-.165.255-.255.08-.095.15-.195.205-.3.065-.105.115-.215.16-.34.05-.115.08-.235.105-.36.02-.13.035-.255.035-.385 0-.135-.01-.26-.035-.385-.02-.13-.06-.25-.105-.36a2.33 2.33 0 0 0-.365-.64 1.368 1.368 0 0 0-.255-.255c-.09-.08-.19-.15-.3-.205a1.773 1.773 0 0 0-.34-.16 1.868 1.868 0 0 0-.365-.095 1.962 1.962 0 0 0-1.185.13c-.25.105-.47.255-.65.44V4.25h-.81v5.62Zm.795-2.035c0-.1.01-.2.025-.29.02-.09.055-.18.085-.265.04-.085.08-.165.13-.24.055-.08.11-.155.18-.215.065-.065.135-.12.205-.17.075-.055.155-.095.23-.13.085-.04.175-.065.265-.08.095-.02.195-.035.29-.035.095 0 .19.01.28.035.09.015.18.045.265.08a1.322 1.322 0 0 1 .615.515c.055.075.1.155.135.24.04.085.065.175.08.265.02.09.035.19.035.29 0 .095-.01.195-.035.29a1.244 1.244 0 0 1-.215.505c-.05.075-.105.145-.17.205-.06.065-.125.12-.205.18-.075.05-.155.09-.24.13-.085.04-.175.07-.265.085a1.715 1.715 0 0 1-.57 0c-.09-.02-.18-.055-.265-.085a1.115 1.115 0 0 1-.24-.13 1.176 1.176 0 0 1-.205-.18c-.065-.065-.12-.135-.18-.205a1.834 1.834 0 0 1-.13-.24 1.619 1.619 0 0 1-.08-.265 1.885 1.885 0 0 1-.02-.29Zm3.895-.01c0 .135.01.265.035.39.02.13.055.25.095.365.05.115.1.23.16.34.065.1.135.205.205.3.08.09.17.18.265.255.095.075.2.14.305.205a2.124 2.124 0 0 0 .705.25c.135.02.265.035.4.035a2.17 2.17 0 0 0 1.005-.23c.305-.155.56-.365.76-.64l-.585-.435c-.15.205-.33.355-.53.46-.2.095-.415.145-.65.145-.345 0-.64-.11-.895-.33-.25-.225-.405-.5-.46-.835h3.33v-.265c0-.135-.01-.265-.035-.39-.02-.13-.055-.25-.095-.365a1.943 1.943 0 0 0-.145-.33 1.62 1.62 0 0 0-.195-.3 1.968 1.968 0 0 0-.25-.25c-.085-.08-.18-.15-.28-.205a1.9 1.9 0 0 0-.67-.25 1.983 1.983 0 0 0-.765.005c-.12.02-.24.055-.36.095-.11.045-.22.095-.33.16-.1.06-.2.13-.29.205a2.255 2.255 0 0 0-.61.895c-.045.11-.075.23-.095.35-.01.115-.025.24-.025.37Zm2.09-1.42c.3 0 .565.095.795.29.23.195.38.445.45.755h-2.495c.07-.31.215-.56.45-.755.23-.19.495-.29.8-.29Zm4.555.1V5.75h-.28c-.225 0-.42.05-.585.145a1.12 1.12 0 0 0-.39.39V5.78h-.8v4.09h.81V7.545c0-.315.085-.565.255-.755a.851.851 0 0 1 .655-.29h.335v.005ZM7.76 15.03c0 .39-.075.76-.23 1.115-.15.355-.355.66-.615.915a2.927 2.927 0 0 1-2.045.835H2.83V12.15h2.045c.525 0 1.005.13 1.45.385.445.26.795.605 1.05 1.05.26.445.385.925.385 1.445Zm-2.88-2.525H3.225v5.04h1.66c.34 0 .66-.065.965-.2.305-.13.57-.31.79-.535a2.539 2.539 0 0 0 .53-2.76 2.55 2.55 0 0 0-.525-.805 2.519 2.519 0 0 0-.79-.54 2.397 2.397 0 0 0-.975-.2Zm3.94.385a.277.277 0 0 1-.41 0 .29.29 0 0 1-.09-.215c0-.08.03-.15.09-.205a.303.303 0 0 1 .42 0c.06.06.09.125.09.205a.346.346 0 0 1-.1.215Zm-.03.945v4.06h-.375v-4.06h.375Zm2.435.325h-.27c-.3 0-.545.11-.725.335-.185.225-.275.5-.275.83v2.565H9.58v-4.06h.375v.595a1.13 1.13 0 0 1 .395-.455c.17-.11.365-.17.59-.17h.285v.36Zm.275 2.755a2.064 2.064 0 0 1-.275-1.055c0-.385.09-.735.27-1.055a2.032 2.032 0 0 1 1.79-1.04c.355 0 .68.09.98.27.295.18.535.425.705.735.17.31.26.645.26 1.005v.19H11.6c.02.305.105.585.265.835.155.25.365.45.62.595a1.72 1.72 0 0 0 1.62.025c.245-.13.445-.305.605-.53l.305.205c-.19.265-.435.475-.735.63a2.05 2.05 0 0 1-.965.23 2.1 2.1 0 0 1-1.06-.28 2.077 2.077 0 0 1-.755-.76Zm1.785-2.81c-.42 0-.79.145-1.105.435-.315.29-.5.65-.56 1.085h3.215c-.035-.43-.2-.79-.5-1.08a1.46 1.46 0 0 0-1.05-.44Zm2.77 1.755c0 .49.165.905.5 1.245.335.34.74.51 1.21.51a1.7 1.7 0 0 0 1.395-.72l.305.205c-.19.265-.435.475-.735.63a2.05 2.05 0 0 1-.965.23 2.052 2.052 0 0 1-1.815-1.045 2.064 2.064 0 0 1-.275-1.055 2.077 2.077 0 0 1 1.03-1.81c.32-.19.675-.28 1.06-.28.345 0 .67.075.965.23.295.155.54.365.735.63l-.305.205a1.79 1.79 0 0 0-.61-.535 1.645 1.645 0 0 0-.785-.195c-.475 0-.88.17-1.215.51a1.72 1.72 0 0 0-.495 1.245Zm5 2.035c-.235 0-.42-.06-.56-.19-.14-.125-.205-.295-.205-.51v-3.02h-.755v-.345h.755v-1.24h.375v1.24h.995v.345h-.995v2.98c0 .125.04.22.115.29.075.07.185.105.325.105h.555v.345h-.605Z"/>
  </g>
  <defs>
    <clipPath id="a">
      <path fill="#fff" d="M0 0h24v24H0z"/>
    </clipPath>
  </defs>
</svg>
